!!!OTL: DAS WANDERN IST DES MUELLERS LUST
!!!ARE: Europa, Mitteleuropa, Deutschland
!!!SCT: B0509
!!!YEM: Copyright 1995, estate of Helmut Schaffrath.
**kern
*ICvox
*Ivox
*M2/4
*k[b-e-]
*B-:
{8f
=1
8.b-
16f
8d
8e-
=2
8.f
16g
8f}
{8b-
=3
8.dd
16cc
8b-
8cc
=4
8.dd
16ee-
8dd
8b-
=5
4dd
4cc
=6
4b-
8r}
{8f
=7
8cc
8cc
16dd
16cc
16bn
16cc
=8
8a
8cc
8f}
{8f
=9
8cc
8cc
16dd
16cc
16bn
16cc
=10
8a
8cc
8f}
{8f
=11
8g
8a
8b-
8cc
=12
8.dd
16cc
8b-}
{8dd
=13
4ff
4a
=14
4b-
8r}
==
!!!AGN: Wander - Lied
!!!ONB: ESAC (Essen Associative Code) Database: BOEHME
!!!AMT: simple duple
!!!AIN: vox
!!!EED: Helmut Schaffrath
!!!EEV: 1.0
*-
